<?xml version="1.0" encoding="UTF-8"?>
<map version="1.10" tiledversion="1.12.2" orientation="orthogonal" renderorder="right-down" width="32" height="32" tilewidth="16" tileheight="16" infinite="0" nextlayerid="2" nextobjectid="1">
 <tileset firstgid="1" name="Nations" tilewidth="16" tileheight="16" tilecount="11" columns="0">
  <grid orientation="orthogonal" width="1" height="1"/>
  <tile id="0">
   <image source="border_corner.png" width="16" height="16"/>
  </tile>
  <tile id="1">
   <image source="border_straight.png" width="16" height="16"/>
  </tile>
  <tile id="2">
   <image source="grass.png" width="16" height="16"/>
  </tile>
  <tile id="3">
   <image source="border_pipe.png" width="16" height="16"/>
  </tile>
  <tile id="4">
   <image source="dirt.png" width="16" height="16"/>
  </tile>
  <tile id="5">
   <image source="house.png" width="16" height="16"/>
  </tile>
  <tile id="6">
   <image source="water.png" width="16" height="16"/>
  </tile>
  <tile id="7">
   <image source="border_corner_water.png" width="16" height="16"/>
  </tile>
  <tile id="8">
   <image source="border_pipe_water.png" width="16" height="16"/>
  </tile>
  <tile id="9">
   <image source="border_straight_water.png" width="16" height="16"/>
  </tile>
  <tile id="10">
   <image source="watchtower.png" width="16" height="16"/>
  </tile>
 </tileset>
 <layer id="1" name="Tile Layer 1" width="32" height="32">
  <data encoding="csv">
3,3,3,3,1610612738,3,3,3,3,3,3,3,3,3,3,1610612738,3,3,3,3,3,3,3,3,3,3,1610612738,3,3,3,3,3,
3,3,3,3,1610612738,3,3,3,3,3,3,3,3,3,3,1610612738,3,3,3,6,3,3,3,3,3,3,1610612738,3,3,3,3,3,
3,3,6,3,1610612738,3,3,3,3,6,3,7,7,7,7,1610612746,7,7,7,7,7,3,3,3,11,3,1610612738,3,3,3,3,3,
7,7,7,3,1610612738,3,3,3,3,7,7,7,7,7,7,1610612746,7,7,7,7,7,6,3,3,2684354561,2,1610612737,3,3,3,3,3,
3,3,7,3,1610612738,3,3,3,3,7,7,7,7,7,3,1610612738,3,7,7,7,7,3,3,3,1610612738,11,3,3,3,3,3,3,
3,3,7,7,1610612746,3,3,3,6,7,7,7,7,7,3,1610612738,7,7,7,7,7,3,3,3,1610612738,3,3,3,3,3,3,3,
3,3,3,6,1610612746,6,3,3,3,6,7,7,7,7,7,1610612746,7,7,7,7,6,3,3,11,1610612738,3,3,3,3,3,3,3,
3,3,3,3,1610612746,3,3,3,3,3,3,7,7,7,7,1610612746,7,7,3,6,3,2684354561,2,2,1610612737,3,3,3,3,3,3,3,
3,3,3,3,1610612746,6,3,3,3,3,3,3,6,3,3,1610612738,3,3,3,3,3,1610612738,3,11,3,3,3,3,3,7,7,7,
3,3,3,3,1610612746,3,3,3,3,3,3,3,3,3,3,1610612738,3,3,3,3,11,1610612738,3,3,3,3,3,7,7,7,7,7,
3,6,3,3,9,2,2,2,2,3221225473,3,3,3,3,3,1610612738,3,3,2684354561,3221225474,3221225474,1610612737,3,3,6,7,7,7,7,7,7,7,
7,7,7,7,1610612746,3,3,6,3,1610612738,3,3,3,3,2684354561,1610612737,3,11,1610612738,3,6,3,3,7,7,7,7,7,7,7,7,7,
7,7,7,7,1610612746,7,7,7,7,1610612738,3,3,6,3,1610612738,3,3,3,1610612738,3,7,7,7,7,7,7,7,7,7,7,7,7,
10,10,10,10,1610612745,10,10,10,3221225480,1610612746,7,3,7,7,1610612746,7,7,7,1610612746,7,7,3,3,7,7,7,7,7,7,7,7,7,
7,7,7,7,3,3,3,7,8,3221225481,7,7,7,7,9,10,10,10,1610612745,3221225480,7,3,6,7,2684354568,10,10,10,10,10,10,10,
7,7,7,7,3,6,3,3,7,1610612746,7,7,7,7,1610612746,7,7,7,7,8,10,10,10,10,1610612744,7,7,7,7,7,7,7,
7,7,7,7,3,3,3,7,7,1610612746,7,7,7,7,1610612746,7,7,7,7,3,6,3,3,3,3,7,7,7,7,7,7,7,
7,7,7,7,7,3,3,7,7,1610612746,7,7,7,7,1610612746,7,7,7,7,3,3,3,2684354561,2,2,10,10,10,10,10,10,10,
3,3,3,7,7,7,7,7,7,8,10,10,10,10,3221225481,7,7,7,7,3,3,3,1610612738,3,6,7,7,7,7,7,7,7,
3,3,3,6,3,6,3,7,7,7,7,7,3,7,1610612746,7,7,7,7,6,3,2684354561,1610612737,3,3,3,7,7,7,7,7,7,
3,3,3,3,3,3,3,3,7,7,7,7,7,7,1610612746,7,7,7,3,3,3,1610612738,3,6,3,7,7,7,7,7,7,7,
3,3,3,3,3,3,3,3,3,3,7,7,7,7,1610612746,7,7,7,3,3,3,1610612746,7,7,7,7,7,7,7,7,7,7,
3,3,3,3,3,3,6,3,2684354568,10,10,10,10,10,1610612745,3221225480,7,7,7,7,7,1610612746,7,7,7,7,3,3,7,7,7,7,
10,10,10,10,10,10,2684354569,10,1610612744,3,3,7,7,7,7,8,10,10,2684354569,10,10,1610612745,10,10,10,3221225480,3,11,3,7,7,7,
3,3,11,3,3,3,1610612746,3,3,3,3,3,3,3,3,7,7,7,1610612738,7,7,7,7,7,7,1610612746,7,3,3,7,7,7,
3,3,3,3,3,3,1610612738,3,3,3,3,3,3,3,3,3,3,3,1610612738,3,7,7,7,7,7,8,10,10,10,10,10,10,
3,3,6,3,6,3,1610612738,3,3,6,3,3,3,3,6,3,3,3,1610612738,3,3,6,3,3,3,7,7,7,7,7,7,7,
3,6,7,7,7,3,1610612738,3,3,3,6,7,7,7,3,3,3,11,1610612738,11,3,3,3,3,6,3,3,6,7,7,7,7,
3,7,7,7,7,7,1610612738,7,7,7,7,7,7,7,7,3,3,3,1610612738,3,3,3,3,3,3,3,3,3,3,3,3,3,
3,7,7,7,7,7,1610612738,3,7,7,7,7,7,7,7,3,3,3,1610612738,3,3,3,3,3,3,3,6,3,3,3,3,3,
3,7,7,7,7,3,1610612738,3,3,6,7,7,7,7,7,3,3,3,1610612738,11,3,3,3,3,3,3,3,3,3,3,3,3,
3,3,7,7,3,3,1610612738,3,3,3,3,3,7,7,7,3,3,3,1610612738,3,3,3,3,3,3,3,3,3,3,3,3,3
</data>
 </layer>
</map>
